X:100
T: Die dienende Schwester
N: Q00752
O: Mitteleuropa, Deutschland
R: Ballade, Adelige als Dienstmagd, Tod; Kinder - Spiel, Tanz
M: 3/4
L: 1/8
K: F
CCC | F3_AGF | E2z
G_AB | c3B_AG | F2z
CCC | F3_AGF | E2z
G_AB | c3B_AG | F2z
ccc | c3G_AF | G2z
CF_A | G3B_AG | F2z

